X: 42404
T: Wes And Maggie's Ceili Croft
R: reel
M: 4/4
K: Amajor
A3c B2AB|cFFE F2EF|AFFE F2EF|ABcA BAcB|
A2cA B2AB|cFFE F2EF|AFFE F2EF|1 ABcA BAcB:|2 ABcA Bcef||

